public/icon/Z_ALL/Dpanel.svg

<?xml version="1.0" encoding="UTF-8"?>
<svg width="1024px" height="1024px" viewBox="0 0 1024 1024" version="1.1" xmlns="http://www.w3.org/2000/svg" xmlns:xlink="http://www.w3.org/1999/xlink">
    <title>Dpanel</title>
    <defs>
        <linearGradient x1="0%" y1="0%" x2="100%" y2="100%" id="linearGradient-1">
            <stop stop-color="#BEDBF0" offset="0%"></stop>
            <stop stop-color="#D3D8E0" offset="100%"></stop>
        </linearGradient>
    </defs>
    <g id="ICON-新版方图标" stroke="none" stroke-width="1" fill="none" fill-rule="evenodd">
        <g id="Dpanel">
            <rect id="蒙版路径" fill="url(#linearGradient-1)" x="0" y="0" width="1024" height="1024"></rect>
            <path d="M657,176 C726.430082,201.691861 774.430082,241.025195 801,294 C827.569918,346.974805 833.236585,414.641472 818,497 C804.126311,545.883019 777.792978,590.883019 739,632 C680.810534,693.675471 607.042556,724.090621 601,727 C547,753 506.666667,767.666667 480,771 C481.601856,796.80531 475.601856,818.80531 462,837 C454.90974,846.484374 411.339203,883.400931 369,887 C349.463536,888.660709 317.110549,850.646905 313,829 C311.647768,821.878897 311.647768,808.21223 313,788 C287.707171,783.759293 268.040504,778.092626 254,771 C232.939243,760.361061 201,733 201,716 C201,710.269357 203.318486,698.798765 219,690 C229.220919,684.265128 253.887586,675.598462 293,664 C301,660.666667 313.333333,659 330,659 C346.666667,659 369,663.333333 397,672 C399.683648,669.21066 401.016981,664.877327 401,659 C400.826566,598.97342 396.448216,527.578835 396,472 C395.485955,408.258407 394.485955,309.591741 393,176 C393.666667,174 397,170.333333 403,165 C406,163 420.744757,150.884982 462,148 C480.210595,146.726532 541.204591,150.403589 592,159 C609.280661,161.92451 630.947328,167.591176 657,176 Z" id="多边形" fill="#342C2B"></path>
            <path d="M641,197 C694,216 750,261 774,298 C787.508167,318.82509 799.882234,351.373205 803,390 C805.078511,415.751197 802.411844,448.08453 795,487 C780.765137,533.581764 756.431804,575.581764 722,613 C672,660 667.094624,663.904729 599,700 C558.395657,720.083868 534,731 496,741 C476.666667,746.333333 463.333333,750.333333 456,753 C455.333333,779 453.333333,796 450,804 C442,818 444.92673,820.470813 418,839 C417.843705,839.107552 426,834 417.531968,839.321288 C409.063935,844.642576 372.536557,862.512186 368,861 C362,859 352.333333,846.666667 339,824 C338.333333,789.333333 337.666667,771.666667 337,771 C336,770 322.697867,765.263645 306,760 C289.302133,754.736355 275.484956,751.583163 268,748 C250.427118,739.587594 233.013853,724.028637 229,719 C228.480233,718.348826 227.726757,717.117916 228,716 C228.272848,714.883696 229.335285,714.065919 230.060096,713.602043 C244.010404,704.673915 295.543218,684.811613 320,683 C347,681 396.298775,700 405,700 C413.701225,700 416.920642,690.014093 420,683 C422.052905,678.323938 423.719572,670.323938 425,659 L418,184 C423.829838,179.256655 440.496505,175.923321 468,174 C486.210595,172.726532 568,172 641,197 Z" id="多边形" fill="#23A3EB"></path>
            <path d="M343,148 L349,195 C341.515928,195.996282 335.849262,197.662948 332,200 C328.150738,202.337052 324.484072,206.337052 321,212 C318.333333,217.333333 317,222.333333 317,227 C317,234 318,240 321,245 C324,250 327,255 332,257 C335.333333,258.333333 341,258.666667 349,258 L387,258 L387,308 L349,308 C340.333333,308 334.666667,308.666667 332,310 C328,312 323,317 321,321 C319,325 317,329.060892 317,338 C317,346.939108 317,347 321,356 C326,363 326,363 332,367 C334.666667,368.333333 340.333333,369.666667 349,371 L343,421 C329,421 316,416.666667 304,408 C292,399.333333 283,390 277,380 C270.333333,365.41183 267,351.41183 267,338 C267,324.58817 270.333333,311.254836 277,298 L285,287 L285,281 L277,268 C270.333333,254.333333 267,240.666667 267,227 C267,213.333333 270.333333,199.666667 277,186 C282.334138,175.959132 291.334138,167.292466 304,160 C316.665862,152.707534 329.665862,148.707534 343,148 Z" id="多边形" fill="#23A1E7"></path>
        </g>
    </g>
</svg>

<svg xmlns="http://www.w3.org/2000/svg" width="1024" height="1024"><defs><linearGradient id="a" x1="0%" x2="100%" y1="0%" y2="100%"><stop offset="0%" stop-color="#BEDBF0"/><stop offset="100%" stop-color="#D3D8E0"/></linearGradient></defs><g fill="none" fill-rule="evenodd"><path fill="url(#a)" d="M0 0h1024v1024H0z"/><path fill="#342C2B" d="M657 176c69.43 25.692 117.43 65.025 144 118 26.57 52.975 32.237 120.641 17 203-13.874 48.883-40.207 93.883-79 135-58.19 61.675-131.957 92.09-138 95-54 26-94.333 40.667-121 44 1.602 25.805-4.398 47.805-18 66-7.09 9.484-50.66 46.4-93 50-19.536 1.66-51.89-36.353-56-58-1.352-7.121-1.352-20.788 0-41-25.293-4.24-44.96-9.907-59-17-21.06-10.639-53-38-53-55 0-5.73 2.318-17.201 18-26 10.22-5.735 34.888-14.402 74-26 8-3.333 20.333-5 37-5s39 4.333 67 13c2.684-2.79 4.017-7.123 4-13-.173-60.027-4.552-131.421-5-187-.514-63.742-1.514-162.408-3-296 .667-2 4-5.667 10-11 3-2 17.745-14.115 59-17 18.21-1.273 79.205 2.404 130 11 17.28 2.925 38.947 8.591 65 17"/><path fill="#23A3EB" d="M641 197c53 19 109 64 133 101 13.508 20.825 25.882 53.373 29 92 2.079 25.751-.588 58.085-8 97-14.235 46.582-38.568 88.582-73 126-50 47-54.905 50.905-123 87-40.604 20.084-65 31-103 41-19.333 5.333-32.667 9.333-40 12-.667 26-2.667 43-6 51-8 14-5.073 16.47-32 35-.156.108 8-5-.468.321-8.468 5.322-44.995 23.191-49.532 21.679-6-2-15.667-14.333-29-37-.667-34.667-1.333-52.333-2-53-1-1-14.302-5.736-31-11s-30.515-8.417-38-12c-17.573-8.412-34.986-23.971-39-29-.52-.651-1.273-1.882-1-3 .273-1.116 1.335-1.934 2.06-2.398 13.95-8.928 65.483-28.79 89.94-30.602 27-2 76.299 17 85 17 8.701 0 11.92-9.986 15-17 2.053-4.676 3.72-12.676 5-24l-7-475c5.83-4.743 22.497-8.077 50-10 18.21-1.273 100-2 173 23"/><path fill="#23A1E7" d="m343 148 6 47c-7.484.996-13.15 2.663-17 5-3.85 2.337-7.516 6.337-11 12-2.667 5.333-4 10.333-4 15 0 7 1 13 4 18s6 10 11 12c3.333 1.333 9 1.667 17 1h38v50h-38c-8.667 0-14.333.667-17 2-4 2-9 7-11 11s-4 8.06-4 17 0 9 4 18c5 7 5 7 11 11 2.667 1.333 8.333 2.667 17 4l-6 50c-14 0-27-4.333-39-13s-21-18-27-28c-6.667-14.588-10-28.588-10-42 0-13.412 3.333-26.745 10-40l8-11v-6l-8-13c-6.667-13.667-10-27.333-10-41 0-13.667 3.333-27.333 10-41 5.334-10.04 14.334-18.708 27-26 12.666-7.292 25.666-11.292 39-12"/></g></svg>
